X:1
T:Nocturne
T:Nocturne
T:Op. 9 No. 1 in B♭ minor
T:Frédéric Chopin
C:Frédéric Chopin
%%score { ( 1 3 ) | ( 2 4 5 6 ) }
L:1/8
Q:1/4=80
M:6/4
K:Db
V:1 treble nm="鋼琴" snm="Pno."
V:3 treble 
V:2 bass 
V:4 bass 
V:5 bass 
V:6 bass 
V:1
!p!"^Larghetto" (bc'd'[Q:1/4=92]=abg | %1
[Q:1/4=98]!<(! .f2 .f2[Q:1/4=104] .f2) f2!<)![Q:1/4=110]!mf!!>(! (gfe!>)!!p!c) | %2
[Q:1/4=116]!mf!!>(! (d4 B2)!>)!!p! (11:6:11(bc'd'=aba^gac'b_g) | %3
 (22:12:22(fg=ef.b.=a._a.=g._g.f.e._e.=d._d.c.d.c=Bcf=e_e) | (!>!d4 B2)!<(! (.b2 .b2 .b2)!<)! | %5
 a6- a4- ag |!mf! !>!f6 (e2!>(! fed__B!>)! |!p! A4) (d2"_smorz." e2 fede | %8
!pp! f6)!p! (bc'd'=a{c'}"^"bg) |!<(! (.f2 .f2 .f2)!<)!!mf! (f2!>(! gfe!>)!!p!c) | %10
 (!>!d4 B2) (11:6:11(bc'd'=ab!<(!a^gac'b_g)!<)! | %11
!mf!"_legatissimo"!>(! (3!wedge!f!8va(!(f''=e'' (3_e''d''c'' (3b'g'f' (3=e'_e'd' (3c'!>)!!p!b=a!8va)!!>(! (3gf!>)!!pp!c) | %12
!mf!!>(! (!>!d4!>)!!p! B2)!<(! (.b2 .b2 .b2)!<)! |!mf! (!>!b4 =d2) (Te2 de !>!g>.f) | %14
!>(! (f4!>)!!p! =e2){fg}!<(! (7:6:7(fef=g.=a.b.c'!<)! | %15
!f!"_appassionato" d'4 (3(b_gB)) (!>!d4 c2) |"_cresc."{/B} (!>!f'3 d') (3(b_gB) (!>!d4 c2){x} | %17
!8va(!{/b} d''2- (3d''.b'.g'!8va)! (3.d'.b.B!>(! (!>!_c4!>)!!p! =A2 | B6) z4 z2 | %19
!pp!"^sotto voce" ([Ff]6 [_F_f]6 | [Ee][=F=f] [Ee]2 [Cc]2) ([B,B]2 !>![A,A]4 | %21
 [B,B]2 !>![Cc]4!<(! [Dd]2!<)!!mf! !>![Ee]4) | ([Ff][Gg] [Bb]2 [Aa]2 [Ff]6) | %23
[Q:1/4=112]"_poco rallent." ([Ff]6[Q:1/4=104] [=E=e]6)[Q:1/4=108][Q:1/4=100] | %24
!ppp![Q:1/4=96] ([=D=d][=E=e] [Dd]2 [=A,=A]2[Q:1/4=88] !>![=B,=B]6)[Q:1/4=92][Q:1/4=84] | %25
[Q:1/4=80] ([=D=d][=E=e] [Dd]2 [=A,=A]2)[Q:1/4=116]"^a tempo"!f! [_B,_B]6[Q:1/4=76] | [Cc]6 [Dd]6 | %27
!p! ([Ff]6 [_F_f]6 | [Ee][=F=f] [Ee]2 [Cc]2) ([B,B]2 !>![A,A]4) | %29
 ([B,B]2 !>![Cc]4 [Dd]2 !>![Ee]4) | ([Ff][Gg] [Bb]2"^" [Aa]2){[Aa]} [Ff]6 | %31
[Q:1/4=112]"_poco rallent." ([Ff]6[Q:1/4=104] [=E=e]6)[Q:1/4=108][Q:1/4=100] | %32
!pp![Q:1/4=96] ([=D=d][=E=e] [Dd]2 [=A,=A]2)[Q:1/4=88] !>![=B,=B]6[Q:1/4=92][Q:1/4=84] | %33
[Q:1/4=80] ([=D=d][=E=e] [Dd]2 [=A,=A]2)!f![Q:1/4=116]"^a tempo" [_B,_B]6[Q:1/4=76] | %34
 ([Cc]6 [Dd]6) | ([Ee]6!f!"_poco stretto"[Q:1/4=122] [Ff]6 | %36
 [Gg]2!<(! [Ff][Gg][Aa][Bb]!<)!!ff! !>![Bb]2 [Ee]2) !>![Aa]2- | %37
 ([Aa]2!>(! [Bb][Aa][Gg][Ff])!>)!!mf! ([Ff]2!f!!>(! [Gg][Ff][Ee]!>)!!mf![Dd]) | %38
 ([Ee]8-!<(! [Ee]2!<)!!mf! [=E=e]2) | %39
[Q:1/4=112]"_poco rallent." ([Ff]6[Q:1/4=104] [=E=e]6)[Q:1/4=108][Q:1/4=100] | %40
!pp![Q:1/4=96] ([=D=d][=E=e] [Dd]2 [=A,=A]2)[Q:1/4=88] !>![=B,=B]6[Q:1/4=92][Q:1/4=84] | %41
[Q:1/4=80] ([=D=d][=E=e] [Dd]2 [=A,=A]2)!f![Q:1/4=116]"^a tempo" ([_B,_B]6[Q:1/4=76] | %42
 [Cc]6 [Dd]6) |!f! ([Ee]6 [Ff]6) | ([Gg]2!<(! [Ff][Gg][Aa][Bb]!<)!!ff! !>![Bb]2 [Ee]2) !>![Aa]2- | %45
 ([Aa]2!>(! [Bb][Aa][Gg][Ff])!>)!!mf! ([Ff]2!f!!>(! [Gg][Ff][Ee]!>)!!mf![Dd]) | %46
 [Ee]8-!<(! [Ee]2!<)!!mf! ([=E=e]2 | %47
[Q:1/4=112]"_poco rallent." [Ff]6[Q:1/4=104] [=E=e]6)[Q:1/4=108][Q:1/4=100] | %48
!pp![Q:1/4=96] ([=D=d][=E=e] [Dd]2 [=A,=A]2)[Q:1/4=88] !>![=B,=B]6[Q:1/4=92][Q:1/4=84] | %49
[Q:1/4=80] ([=D=d][=E=e] [Dd]2 [=A,=A]2)!f![Q:1/4=116]"^a tempo" ([_B,_B]6[Q:1/4=76] | %50
!<(! [Cc]6 [Dd]6)!<)! |!ff! (!>!f4 ef e4 d2) | ([_ca]3 [db][ca][db] [ca]3) z z2 | %53
 (f4 ef !>!e4 d2) | ([_ca][db][ca][db][ca][db]) [ca]6 | %55
"_con forza"!>(! [d'f']3 ([_c'e'][ac'][fa]!>)!!mf!!>(! [_cf]4) ([ceg]2 | [gb]6 [fa]6) | %57
 (!>![df]3!>)!!pp! [_ce][Ac][FA] [_CF]4) (G2 | !>![GB]6 [FA]6) | z12 |!>(! z12!>)! | %61
!ppp! (!>![df]4 [Ae][df]) ([Ae]4 [Fd]2) | ([fa]3 [gb][fa][gb]) [fa]3 z z2 | %63
 ([df]4 [Ae][df]) ([Ae]4 [Fd]2) | ([fa][gb][fa][gb][fa][gb]) [fa]6 | %65
 ([d'f']3 [ae'][fd'][fa]) ([df]4 [eg]2 | [gb]6 [fa]6) | !>![df]12- |"_smorz." [df]12- | [df]12 | %70
 z4"_rall. e dolciss."[Q:1/4=108] z2[Q:1/4=100]!>(! (bc'[Q:1/4=92]d'!>!=a[Q:1/4=84]!>!bg)!>)! | %71
[Q:1/4=116]"^Tempo I"!p! (.f2 .f2 .f2) (f2 gfec | d4 B2) (bc'd'=a (3(c'bg)) | %73
 (3(fg=e (3f)"_legatissimo"!8va(!(f''=e'' (3_e''d''c'' (20:6:20b'=a'g'f'=e'_e'd'c'b=ag!8va)!fgef=Bcf_ed) | %74
 d4!<(! (B2 b2) (.b2 .b2)!<)! |!mf!!>(! (b4!>)!!p! =d2) (7:6:7(efede!>!g3/2f/) | %76
!mf!!>(! (f4!>)!!p! =e2)"^" Tf2!<(! =g=ab!<)!c' |!f! d'4 (3(b_gB) (!>!d4 c2) | %78
"_cresc."{/B} (f'3 d' (3(b_gB)) (!>!d4 c2){x} | %79
!8va(!{/b} d''2-!ff! (3d''.b'.g'!8va)! (3.d'.b.B!>(! (!>!_c4!>)!"_dimin." =A2 | %80
!p! B6) (!>!_c4 =A2 |"_smorz." B6)[Q:1/4=112] (!>!_c/e/g/_c'/)[Q:1/4=108] e' z[Q:1/4=104] z (=A | %82
!pp![Q:1/4=100] B4)[Q:1/4=92] z2!ff! !>![e'g']6-[Q:1/4=96] | %83
"_accelrando"[Q:1/4=96] [e'g'][Q:1/4=100]!>![_c'e'][Q:1/4=104]!>![=ac'][Q:1/4=108]!>![ga][Q:1/4=112]!>![eg][Q:1/4=116]!>![_ce]"_dimin." !>![=Ac]!>![GA]!>![EG]!>![_CE]"_ritenuto"[Q:1/4=108][I:staff +1]!>![=A,_C][Q:1/4=100]!>![G,A,E] | %84
!ppp![Q:1/4=80]"^\n" [F,B,=D]6[Q:1/4=72] .[F,B,D]2[Q:1/4=60] .[F,B,D]2[Q:1/4=58] .[B,D]2[Q:1/4=46] | %85
[Q:1/4=58] !fermata![=D,F,B,=D]12 |] %86
V:2
 z4 z2 |!ped! (B,,F,DB,FF,)!ped-up!!ped! (B,,F,E=A,FF,)!ped-up! | %2
!ped! (B,,F,DB,FF,)!ped-up! (B,,F,DB,FF,) | %3
!ped! (B,,F,DB,FF,)!ped-up!!ped! (B,,F,E=A,FF,)!ped-up! | %4
!ped! (B,,F,DB,FF,) (B,,F,DB,FF,)!ped-up! | %5
!ped! (!>!D,,!p!F,DA,FF,)!ped-up!!ped! (G,,D,B,G,DD,)!ped-up! | %6
!ped! (D,,D,A,F,DD,)!ped-up!!ped! (G,,D,__B,G,DD,)!ped-up! | %7
!ped! (D,,D,A,F,DD,)!ped-up!!ped! (G,,D,__B,G,EC,)!ped-up! | %8
!ped! (F,,F,=A,F,EA,)!ped-up! (B,,F,DB,FF,) | %9
!ped! (B,,F,DB,FF,)!ped-up!!ped! (B,,F,E=A,FF,)!ped-up! | %10
!ped! (B,,F,DB,FF,)!ped-up! (B,,F,DB,FF,) | %11
!ped! (B,,F,DB,FF,)!ped-up!!ped! (B,,F,E=A,FF,)!ped-up! | %12
!ped! (B,,F,DB,FF,) (B,,F,DB,FF,)!ped-up! |!ped! (B,,F,=DB,A!ped-up!B,)!ped! (E,G,EB,GE)!ped-up! | %14
!ped! C,=G,=ECB!ped-up!C!ped! F,C[K:treble]=A_EcA!ped-up! | %15
[K:bass]!ped! (B,,F,DB,E,!ped-up!_G)!ped! (F,,F,B,FE!ped-up!=A,) | %16
!ped! (B,,F,DB,E,!ped-up!G)!ped! (F,,F,B,FE!ped-up!=A,) | %17
!ped! (G,,D,G,B,_F!ped-up!G,)!ped! (E,G,_CE)!ped-up!=F,E | %18
!<(!!ped! (B,,F,DB,FD!<)!!mf!"_smorz." B,F,D,B,,F,,!ped-up!E,,) | %19
!ped! (D,,A,,D,A,D,!ped-up!A,,)!ped! (D,,A,,D,__A,D,A,,)!ped-up! | %20
!ped! (D,,A,,C,G,C,A,,)!ped-up!!ped! (D,,A,,C,G,C,A,,)!ped-up! | %21
!ped! (D,,A,,C,G,C,A,,)!ped-up!!ped! (D,,A,,C,G,C,A,,)!ped-up! | %22
!ped! (D,,A,,E,A,C,A,,)!ped-up!!ped! (D,,A,,D,A,D,A,,)!ped-up! | %23
!ped! (D,,A,,D,A,D,A,,)!ped-up!!ped! (^C,,=A,,^C,=G,C,A,,)!ped-up! | %24
!ped! (=D,,=A,,=D,^F,D,A,,)!ped-up!!ped! (D,,=G,,D,=G,D,G,,)!ped-up! | %25
!ped! (=D,,=A,,=D,^F,D,A,,)!ped-up!!ped! (=G,,^C,=E,_B,E,C,)!ped-up! | %26
!ped!"^cresc." (_A,,_E,_G,__B,A,A,,)!ped-up!!ped! (D,,A,,D,A,D,!ff!A,,)!ped-up! | %27
!ped! (D,,A,,D,A,D,A,,)!ped-up!!ped! (D,,A,,D,__A,D,A,,)!ped-up! | %28
!ped! (D,,A,,C,G,C,A,,)!ped-up!!ped! (D,,A,,C,G,C,A,,)!ped-up! | %29
!ped! (D,,A,,C,G,C,A,,)!ped-up!!ped! (D,,A,,C,G,C,A,,)!ped-up! | %30
!ped! (D,,A,,E,A,C,A,,)!ped-up!!ped! (D,,A,,D,A,D,A,,)!ped-up! | %31
!ped! (D,,A,,D,A,D,A,,)!ped-up!!ped! (^C,,=A,,^C,=G,C,A,,)!ped-up! | %32
!ped! (=D,,=A,,=D,^F,D,A,,)!ped-up!!ped! (D,,=G,,D,=G,D,G,,)!ped-up! | %33
!ped! (=D,,=A,,=D,^F,D,A,,)!ped-up!!ped! (=G,,^C,=E,_B,E,C,)!ped-up! | %34
!ped! (_A,,_E,_G,__B,A,A,,)!ped-up!!ped! (D,,A,,D,A,D,_B,,)!ped-up! | %35
!ped! (A,,E,A,CA,E,)!ped-up!!ped! (A,,=D,F,B,F,D,)!ped-up! | %36
!ped! (G,,B,,E,B,E,B,,)!ped-up!!ped! (G,,C,E,A,E,C,)!ped-up! | %37
!ped! (F,,A,,D,A,D,A,,)!ped-up!!ped! (D,,A,,D,A,D,A,,)!ped-up! | %38
!ped! (D,,!p!B,,E,=G,E,B,,)!ped-up!!ped! (D,,=A,,C,_G,C,_A,,)!ped-up! | %39
!ped! (D,,A,,D,A,D,A,,)!ped-up!!ped! (^C,,=A,,^C,=G,C,A,,)!ped-up! | %40
!ped! (=D,,=A,,=D,^F,D,A,,)!ped-up!!ped! (D,,=G,,D,=G,D,G,,)!ped-up! | %41
!ped! (=D,,=A,,=D,^F,D,A,,)!ped-up!!ped! (=G,,^C,=E,_B,E,C,)!ped-up! | %42
!ped! (_A,,_E,_G,__B,A,A,,)!ped-up!!ped! (D,,A,,D,A,D,_B,,)!ped-up! | %43
!ped! (A,,E,A,CA,E,)!ped-up!!ped! (A,,=D,F,B,F,D,)!ped-up! | %44
!ped! (G,,B,,E,B,E,B,,)!ped-up!!ped! (G,,C,E,A,E,C,)!ped-up! | %45
!ped! (F,,A,,D,A,D,A,,)!ped-up!!ped! (D,,A,,D,A,D,A,,)!ped-up! | %46
!ped! (D,,!p!B,,E,=G,E,B,,)!ped-up!!ped! (D,,=A,,C,_G,C,_A,,)!ped-up! | %47
!ped! (D,,A,,D,A,D,A,,)!ped-up!!ped! (^C,,=A,,^C,=G,C,A,,)!ped-up! | %48
!ped! (=D,,=A,,=D,^F,D,A,,)!ped-up!!ped! (D,,=G,,D,=G,D,G,,)!ped-up! | %49
!ped! (=D,,=A,,=D,^F,D,A,,)!ped-up!!ped! (=G,,^C,=E,B,E,C,)!ped-up! | %50
!ped! (_A,,_E,_G,__B,A,A,,)!ped-up!!ped! (D,,A,,D,A,D,A,,)!ped-up! | %51
!ped! (D,,A,,D,A,D,A,,) (D,,A,,D,A,D,A,,)!ped-up! | %52
!ped! (D,,A,,D,A,D,A,,) (D,,A,,!ped-up!D,A,D,A,,) | %53
!ped! (D,,A,,D,A,D,A,,) (D,,A,,D,A,D,A,,)!ped-up! | %54
!ped! (D,,A,,D,A,D,A,,) (D,,A,,D,A,D,A,,)!ped-up! | %55
!ped! (D,,A,,D,A,D,A,,) (D,,A,,D,A,D,A,,)!ped-up! | %56
!ped! (D,,A,,D,A,D,A,,)!ped-up!!ped! (D,,A,,D,A,D,A,,)!ped-up! | %57
!ped! (D,,A,,D,A,D,A,,)!ped-up!!ped! (D,,A,,D,A,D,A,,)!ped-up! | %58
!ped! (D,,A,,D,A,D,A,,)!ped-up!!ped! (D,A,DA,D,A,,)!ped-up! | %59
!ped! (D,A,DA,D,A,,)!ped-up!!ped! (D,A,DA,D,A,,)!ped-up! | %60
!ped! D,A,DA,D,A,,!ped-up!!ped! D,A,DA,D,A,,!ped-up! | %61
!ped! D,A,DA,D,A,,!ped-up!!ped! D,A,DA,D,A,,!ped-up! | %62
!ped! D,A,DA,D,A,,!ped-up!!ped! D,A,DA,D,A,,!ped-up! | %63
!ped! D,A,DA,D,A,,!ped-up!!ped! D,A,DA,D,A,,!ped-up! | %64
!ped! (D,A,DA,D,A,,)!ped-up!!ped! (D,A,DA,D,A,,)!ped-up! | %65
!ped! (D,A,DA,D,A,,)!ped-up!!ped! (D,A,DA,D,A,,)!ped-up! | %66
!ped! (D,A,DA,D,A,,)!ped-up!!ped! (D,A,DA,D,A,,)!ped-up! | %67
!ped! (D,!p!A,DA,D,)!ped-up!!ped!(=A,, D,=A,DA,!ped-up!D,)!ped!(_A,, | %68
!p! D,A,DA,!ped-up!D,)!ped!(G,, D,G,DG,!ped-up!D,)!ped!(A,, | %69
 D,A,DA,D,)!ped-up!!ped!(=A,, D,=A,DA,D,)!ped-up!!ped!(A,, | %70
!pp! D,=A,DA,D,)!ped-up!(B,, D,F,DB,FF,) |!ped! (B,,F,DB,FF,)!ped-up!!ped! (B,,F,E=A,FF,)!ped-up! | %72
!ped! (B,,F,DB,FF,)!ped-up! (B,,F,DB,FF,) | %73
!ped! (B,,F,DB,FF,)!ped-up!!ped! (B,,F,E=A,FF,)!ped-up! | %74
!ped! (B,,F,DB,FF,)!ped-up!!ped! (B,,F,DB,FF,)!ped-up! | %75
!ped! (B,,F,=DB,AB,)!ped-up!!ped! (E,G,EB,GE)!ped-up! | %76
!ped! (C,=G,=ECBC)!ped-up!!ped! (F,C[K:treble]=A_EcA)!ped-up! | %77
[K:bass]!ped! (B,,F,DB,E,!ped-up!_G)!ped! (F,,F,B,FE!ped-up!=A,) | %78
!ped! (B,,F,DB,E,!ped-up!G)!ped! (F,,F,B,FE!ped-up!=A,) | %79
!ped! (G,,D,G,B,_FG,)!ped-up!!ped! (E,G,_CE!ped-up!=F,E) | %80
!ped! (B,,F,DB,FF,)!ped-up!!ped! (B,,G,E=A,GG,)!ped-up! | %81
!ped! (B,,F,DB,FF,)!ped-up!!ped! (B,,G,E=A,GG,)!ped-up! | %82
!ped! (B,,F,DB,FF,)!ped-up!!ped! (B,,G,=A,_CEG) |[K:treble] =A2 z2 z2 z4[K:bass] z2!ped-up! | %84
!ped! ([B,,,B,,]6 .[B,,,B,,]2 .[B,,,B,,]2 .[B,,,B,,]2) | !arpeggio!!fermata![B,,,B,,]12!ped-up! |] %86
V:3
 x6 | x12 | x12 | x12 | x12 | x6 !>!d2!<(! Bcdg!<)! | x12 | x12 | x12 | x12 | x12 | %11
 x2/3!8va(! x28/3!8va)! x2 | x12 | x12 | x12 | x12 | x12 |!8va(! x4!8va)! x8 | x12 | x12 | x12 | %21
 x12 | x12 | x12 | x12 | x12 | x12 | x12 | x12 | x12 | x12 | x12 | x12 | x12 | x12 | x12 | x12 | %37
 x12 | x12 | x12 | x12 | x12 | x12 | x12 | x12 | x12 | x12 | x12 | x12 | x12 | x12 | [F_c]6 [Fc]6 | %52
 x12 | [F_c]8 [Fc]4 | x12 | x12 | _c12 | x10 [_C-E]2 | C12 | x12 | x12 | x12 | x12 | x12 | x12 | %65
 x12 | x12 | x12 | x12 | x12 | x12 | x12 | x12 | x8/3!8va(! x199/30!8va)! x27/10 | x12 | x12 | %76
 x6 !///-!x x{=ef} x4 | x12 | x12 |!8va(! x4!8va)! x8 | x12 | x12 | x12 | x12 | %84
 x10[I:staff +1] G,F, | x12 |] %86
V:4
 x6 | x12 | x12 | x12 | x12 | x12 | x12 | x12 | x12 | x12 | x12 | x12 | x12 | x12 | %14
 x8[K:treble] x4 |[K:bass] x7 F,4 x | x7 F,4 x | x10 F,2 | x12 | x12 | x12 | x12 | x12 | x12 | %24
 x12 | x12 | x12 | x12 | x12 | x12 | x12 | x12 | x12 | x12 | x12 | x12 | x12 | x12 | x12 | x12 | %40
 x12 | x12 | x12 | x12 | x12 | x12 | x12 | x12 | x12 | x12 | x12 | x12 | x12 | x12 | x12 | x12 | %56
 x12 | x12 | x12 | x12 | x12 | x12 | x12 | x12 | x12 | x12 | x12 | x12 | x12 | x12 | x5 B,,2 x5 | %71
 x12 | x12 | x12 | x12 | x12 | x8[K:treble] x4 |[K:bass] x7 F,4 x | x7 F,4 x | x12 | x12 | x12 | %82
 x12 |[K:treble] x10[K:bass] x2 | x12 | x12 |] %86
V:5
 x6 | x12 | x12 | x12 | x12 | x12 | x12 | x12 | x12 | x12 | x12 | x12 | x12 | x12 | %14
 x8[K:treble] x4 |[K:bass] x12 | x12 | x12 | x12 | x12 | x12 | x12 | x12 | x12 | x12 | x12 | x12 | %27
 x12 | x12 | x12 | x12 | x12 | x12 | x12 | x12 | x12 | x12 | x12 | x12 | x12 | x12 | x12 | x12 | %43
 x12 | x12 | x12 | x12 | x12 | x12 | x12 | x12 | x12 | x12 | x12 | x12 | x12 | x12 | x12 | x12 | %59
 x12 | x12 | x12 | x12 | x12 | x12 | x12 | x12 | x12 | x12 | x12 | x6 D,2 x4 | x12 | x12 | x12 | %74
 x12 | x12 | x8[K:treble] x4 |[K:bass] x12 | x12 | x12 | x12 | x12 | x12 | %83
[K:treble] x10[K:bass] x2 | x12 | x12 |] %86
V:6
 x6 | x12 | x12 | x12 | x12 | x12 | x12 | x12 | x12 | x12 | x12 | x12 | x12 | x12 | %14
 x8[K:treble] x4 |[K:bass] x12 | x12 | x12 | x12 | x12 | x12 | x12 | x12 | x12 | x12 | x12 | x12 | %27
 x12 | x12 | x12 | x12 | x12 | x12 | x12 | x12 | x12 | x12 | x12 | x12 | x12 | x12 | x12 | x12 | %43
 x12 | x12 | x12 | x12 | x12 | x12 | x12 | x12 | x12 | x12 | x12 | x12 | x12 | x12 | x12 | x12 | %59
 x12 | x12 | x12 | x12 | x12 | x12 | x12 | x12 | x12 | x12 | x12 | x7 F,2 x3 | x12 | x12 | x12 | %74
 x12 | x12 | x8[K:treble] x4 |[K:bass] x12 | x12 | x12 | x12 | x12 | x12 | %83
[K:treble] x10[K:bass] x2 | x12 | x12 |] %86

